assets/misc-grey/MiscGrey67.svg

<svg width="40" height="39" viewBox="0 0 40 39" fill="none" xmlns="http://www.w3.org/2000/svg">
<path fill-rule="evenodd" clip-rule="evenodd" d="M26.879 18.209H13.213C12.385 18.209 11.713 18.88 11.713 19.709C11.713 20.538 12.385 21.209 13.213 21.209H26.879C27.708 21.209 28.379 20.538 28.379 19.709C28.379 18.88 27.708 18.209 26.879 18.209ZM31.537 31.2C25.201 37.535 14.892 37.535 8.55604 31.2C2.22004 24.864 2.22004 14.554 8.55604 8.21799C14.892 1.88299 25.201 1.88199 31.537 8.21799C37.873 14.554 37.873 24.864 31.537 31.2ZM33.658 6.09699C26.152 -1.40901 13.94 -1.40801 6.43504 6.09699C-1.07096 13.603 -1.07096 25.815 6.43504 33.321C10.188 37.074 15.117 38.95 20.046 38.95C24.976 38.95 29.905 37.073 33.658 33.321C41.164 25.815 41.164 13.603 33.658 6.09699Z" fill="#1A1919"/>
</svg>

<svg xmlns="http://www.w3.org/2000/svg" viewBox="0 0 40 39"><path fill-rule="evenodd" d="M26.879 18.209H13.213a1.5 1.5 0 100 3h13.666a1.5 1.5 0 100-3zM31.537 31.2c-6.336 6.335-16.645 6.335-22.981 0-6.336-6.336-6.336-16.646 0-22.982 6.336-6.335 16.645-6.336 22.981 0 6.336 6.336 6.336 16.646 0 22.982zm2.121-25.103c-7.506-7.506-19.718-7.505-27.223 0-7.506 7.506-7.506 19.718 0 27.224a19.188 19.188 0 0013.611 5.629c4.93 0 9.859-1.877 13.612-5.629 7.506-7.506 7.506-19.718 0-27.224z" clip-rule="evenodd"/></svg>
